!!!OTL: Verschlafener Jaeger Lustig ist das Zigeunerleben,
!!!ARE: Europa, Mitteleuropa, Deutschland
!!!YOR: 7, S. 218
!!    1917 gedruckt in Berlin
!!!SCT: Q1152N
!!!YEM: Copyright 1995, estate of Helmut Schaffrath.
**kern
*ICvox
*Ivox
*M3/4
*k[]
*C:
=1
{2g
4g
=2
4g
4a
4g
=3
2e
4e
=4
4e
4d
4e}
=5
{4.f
8f
4f
=6
2g
4g
=7
[2.e
=8
4e]
2r}
=9
{2g
4g
=10
4g
4a
4g
=11
2e
4e
=12
4e
4d
4e}
=13
{4.f
8f
4f
=14
2g
4g
=15
[2.e
=16
4e]
2r}
=17
{2cc
4cc
=18
4cc
4b
4a
=19
4.a
8g
4g
=20
2.g}
=21
{4.a
8a
4a
=22
4a
4g
4f
=23
4.f
8e
4e
=24
2.e}
=25
{4.g
8g
4g
=26
4.g
8a
4g
=27
4.e
8e
4e
=28
4.e
8d
4e}
=29
{4.f
8f
4f
=30
2g
4g
=31
[2.e
=32
4e]
2r}
==
!!!AGN: Wandervogel - Lied
!! Melodievergleich zu Q0152O und P, anderes Lied.
!!    Refrain auf sinnfreie Silben.
!!!ONB: ESAC (Essen Associative Code) Database: BALLADE
!!!AMT: simple triple
!!!AIN: vox
!!!EED: Helmut Schaffrath
!!!EEV: 1.0
*-
